X:1
T:Title
%%score { ( 1 4 ) | ( 2 3 5 ) }
L:1/8
M:6/8
K:G
V:1 treble nm="Grand Piano"
V:4 treble 
V:2 bass 
V:3 bass 
V:5 bass 
V:1
 z3 z2[Q:1/4=75] G/A/ | [DB]>BB BAB | c2 d B2 G/A/ | [DB]>BB [^CGB]2 A | [DFA]3- [DFA] z G/A/ | %5
 [DB]>BB BAB | c2 d B2 B/B/ | [Fd]>AF B2 A | .D6[K:bass] | [CA]>Bc cBA | [B,G]A[Ec] [DB]2 B/B/ | %11
 [DB]>BB .[GB]2 ^c |[M:13/16] [Dd]-<[Dd]-[D-Gd-][DAd]3/2 z [Fd]/d/ |[M:3/4] d>e d[G^c] AA | %14
[M:7/8] cd[Fc] [GB]3 [EG]/A/ |[M:3/4] [DB]>c B[^CG] [=CA]2 |[M:5/8] [B,G]- [B,G]3 z | %17
[M:1/8] [Gd]/[Gd]/ |[M:3/4] [Fd]>[EFc] [DFB][CFA] [B,=F^G][C^FA] | [DGB]G c B2 B/B/ | %20
 B[^DA] [DF][EG] [FA][E_B] |[M:5/8] B- B3 z |[M:1/8] B/B/ |[M:3/4] e>e dc BA | %24
[M:7/8] d2 z z z z2[Q:1/4=74][Q:1/4=73][Q:1/4=72][Q:1/4=71][Q:1/4=69] | %25
[M:3/4] [DGB]>[EGc] [DGB][^CEG] [=CFA]2[Q:1/4=68][Q:1/4=67][Q:1/4=66][Q:1/4=65][Q:1/4=64][Q:1/4=63][Q:1/4=62][Q:1/4=61][Q:1/4=60][Q:1/4=58][Q:1/4=57] | %26
[M:5/8] [B,G]-[B,G]- [B,G]3 |] %27
V:2
 z3 z2 B,/C/ | z z/ D/D DCD | E2[K:treble] F G2[K:bass] B,/C/ | z z/ D/D z2 G | D,3 .D,,2 B,/C/ | %5
 z z/ D/D DCD | E2[K:treble] F G2 G/G/ | z z/[K:treble] F/D [^CG]2 [CG] | [D,F,]F,E, .D,3 | %9
 z z/[K:treble] D/E EDC | D,-[D,C]G, z2 D/D/ | z z/ D/D z[K:treble] EG | %12
[M:13/16][K:bass] z A,B,C3/2 z/ z[K:treble] F/ |[M:3/4] G>G .G2 GG | %14
[M:7/8][K:bass] [D,A,]2 [^D,A,] [E,G,]3 z/ ^D/ |[M:3/4] z z/ E/ DA,, D,2 | %16
[M:5/8] [G,,D,]- [G,,D,]3 z |[M:1/8] [G,B,]/[G,B,]/ |[M:3/4] [D,A,]>D, D,D, D,D, | %19
 z[K:treble] [B,D] [G,EG] [G,DG]2[K:bass] [G,B,D]/[G,B,D]/ | %20
 [F,B,^D][B,,B,] [B,,B,] [E,B,]2 [C,E,] |[M:5/8] F,2 z z2 |[M:1/8] [A,B,^D]/[B,D]/ | %23
[M:3/4] [G,B,E]>[G,B,E] [^G,B,E][A,E] [A,DE][A,CE] |[M:7/8] [D,A,]2 z z z z2 | %25
[M:3/4] D,>D, D,A,, C,2 |[M:5/8] G,,-G,,- G,,3 |] %27
V:3
 x6 | [G,,G,]6- | [G,,G,]6[K:treble][K:bass] | G,,3 A,,3 | x6 | [G,,G,]6- | [G,,G,]6[K:treble] | %7
 [A,,A,]6[K:treble] | x6 | [D,,D,]6[K:treble] | z3 G,3 | G,,3 A,,3[K:treble] | %12
[M:13/16][K:bass] D,/-D,/-D,/-D,/-D,/-D,-<D, z [D,C][K:treble] |[M:3/4] [G,B,]3 A,3 | %14
[M:7/8][K:bass] z z z z z2 C, |[M:3/4] D,4 z2 |[M:5/8] x5 |[M:1/8] x |[M:3/4] x6 | %19
 G,2[K:treble] z2 z2[K:bass] | x6 |[M:5/8] B,,2- [B,,-G,] [B,,F,] z |[M:1/8] x |[M:3/4] x6 | %24
[M:7/8] z ED, G,3 C,/C,/ |[M:3/4] x6 |[M:5/8] x5 |] %27
V:4
 x6 | x6 | x6 | x6 | x6 | x6 | x6 | x6 | z[K:bass] A,G, .F,2 D/D/ | x6 | x6 | x6 | %12
[M:13/16] F-<F z/ z/ z/ z/ z/ z/ z/ z |[M:3/4] x6 |[M:7/8] F2 z z z z2 |[M:3/4] x6 |[M:5/8] x5 | %17
[M:1/8] x |[M:3/4] x6 | x6 | x6 |[M:5/8] ^D2 E D z |[M:1/8] x |[M:3/4] x6 | %24
[M:7/8] F z [DFc] [DGB]3 [EG]/[^DGA]/ |[M:3/4] x6 |[M:5/8] x5 |] %27
V:5
 x6 | x6 | x2[K:treble] x3[K:bass] x | x6 | x6 | x6 | x2[K:treble] x4 | x3/2[K:treble] x9/2 | x6 | %9
 x3/2[K:treble] x9/2 | G,,6 | x4[K:treble] x2 |[M:13/16][K:bass] x6[K:treble] x/ |[M:3/4] x6 | %14
[M:7/8][K:bass] x7 |[M:3/4] x6 |[M:5/8] x5 |[M:1/8] x |[M:3/4] x6 | x[K:treble] x4[K:bass] x | x6 | %21
[M:5/8] x5 |[M:1/8] x |[M:3/4] x6 |[M:7/8] x7 |[M:3/4] x6 |[M:5/8] x5 |] %27

